X:1
T:Hornpipe by Stephenson. JNi.[023]
T:Hornpipe by Stephenson. JNi.[023]
T:Stephenson
C:Stephenson
L:1/8
Q:1/4=140
M:4/4
K:A
V:1 treble 
V:1
 ed | cAce agfe | fedc B2 ed | cAce agfe | (3(ded) (3(cdc) B2 ed | cAce agfe | fedc B2 ed | %7
 cBAG Aced | c2 A2 A2 :: ed | (3(cBA) (aA) (gA) (fA) | eac'b e2 ed | (3(cBA) (aA) (gA) (fA) | %13
 edcA B2 ed | (3(cBA) (aA) (gA) (fA) | eac'b e2 ed | cafd cABG | A2 a2 A2 :| %18

